!!!OTL: VERGISS MEIN NICHT O THEURE
!!!ARE: Europa, Mitteleuropa, Deutschland
!!!SCT: B0394
!!!YEM: Copyright 1995, estate of Helmut Schaffrath.
**kern
*ICvox
*Ivox
*M4/4
*k[]
*C:
{8e
8e
8f
=1
4.g
8g
8g
8ee
8dd
8cc
=2
8cc
8b
4b
8r}
{8b
8b
8cc
=3
4.dd
8b
4.g
8f
=4
2e
8r}
{8g
8g
8g
=5
4.cc
8cc
8b
8cc
8b
8cc
=6
4cc
[4a
16a]
16cc
16b
16cc
16dd
16cc
16b
16a
=7
8a
8g
4g
4.r
8g}
=8
{2.g
8a
8b
=9
2cc
4.r
8g
=10
2.g
8f
8d
=11
2c
8r}
==
!!!AGN: Liebes - Lied, Liebes - Lust
!!!ONB: ESAC (Essen Associative Code) Database: BOEHME
!!!AMT: simple quadruple
!!!AIN: vox
!!!EED: Helmut Schaffrath
!!!EEV: 1.0
*-
!!!title: @{OTL} [@{SCT}]
